korla/scalable/apps/scalable/gconf-editor.svg

<?xml version="1.0" encoding="UTF-8" standalone="no"?><!DOCTYPE svg PUBLIC "-//W3C//DTD SVG 1.1//EN" "http://www.w3.org/Graphics/SVG/1.1/DTD/svg11.dtd"><svg width="100%" height="100%" viewBox="0 0 48 48" version="1.1" xmlns="http://www.w3.org/2000/svg" xmlns:xlink="http://www.w3.org/1999/xlink" xml:space="preserve" xmlns:serif="http://www.serif.com/" style="fill-rule:evenodd;clip-rule:evenodd;stroke-linejoin:round;stroke-miterlimit:1.41421;"><g><circle cx="24" cy="24" r="23" style="fill:url(#_Linear1);"/><path id="path17" d="M41.742,22.017c-0.056,-0.501 -0.642,-0.878 -1.147,-0.878c-1.636,0 -3.088,-0.961 -3.697,-2.447c-0.623,-1.523 -0.221,-3.297 0.999,-4.415c0.383,-0.352 0.429,-0.938 0.108,-1.347c-0.838,-1.063 -1.79,-2.024 -2.829,-2.857c-0.407,-0.326 -1.004,-0.281 -1.357,0.11c-1.065,1.179 -2.976,1.617 -4.453,1.001c-1.537,-0.648 -2.507,-2.205 -2.412,-3.877c0.031,-0.526 -0.353,-0.982 -0.876,-1.042c-1.334,-0.155 -2.679,-0.16 -4.016,-0.011c-0.518,0.056 -0.902,0.503 -0.885,1.021c0.059,1.656 -0.923,3.187 -2.444,3.809c-1.46,0.597 -3.358,0.162 -4.42,-1.006c-0.352,-0.384 -0.939,-0.432 -1.348,-0.113c-1.07,0.839 -2.044,1.801 -2.888,2.856c-0.33,0.409 -0.282,1.004 0.106,1.357c1.243,1.126 1.645,2.916 0.998,4.454c-0.616,1.468 -2.14,2.414 -3.884,2.414c-0.567,-0.018 -0.97,0.362 -1.032,0.876c-0.157,1.343 -0.159,2.708 -0.007,4.061c0.056,0.504 0.658,0.878 1.171,0.878c1.554,-0.04 3.047,0.923 3.673,2.447c0.624,1.521 0.223,3.296 -0.999,4.415c-0.381,0.35 -0.43,0.937 -0.108,1.346c0.829,1.057 1.781,2.017 2.825,2.857c0.409,0.33 1.004,0.283 1.359,-0.108c1.068,-1.181 2.979,-1.619 4.451,-1.001c1.541,0.644 2.51,2.202 2.415,3.875c-0.03,0.526 0.355,0.983 0.877,1.043c0.682,0.08 1.368,0.12 2.057,0.12c0.653,0 1.307,-0.036 1.959,-0.109c0.518,-0.056 0.902,-0.503 0.884,-1.023c-0.059,-1.654 0.923,-3.185 2.443,-3.807c1.47,-0.6 3.36,-0.161 4.422,1.006c0.353,0.384 0.937,0.431 1.347,0.113c1.069,-0.838 2.04,-1.798 2.889,-2.856c0.33,-0.409 0.283,-1.004 -0.107,-1.357c-1.242,-1.126 -1.646,-2.916 -1,-4.454c0.607,-1.448 2.075,-2.421 3.653,-2.421l0.221,0.006c0.512,0.042 0.983,-0.353 1.044,-0.875c0.158,-1.343 0.16,-2.708 0.008,-4.061Zm-17.714,7.977c-3.284,0 -5.956,-2.672 -5.956,-5.956c0,-3.284 2.672,-5.956 5.956,-5.956c3.284,0 5.956,2.672 5.956,5.956c0,3.284 -2.672,5.956 -5.956,5.956Z" style="fill:url(#_Linear2);"/><path id="path171" serif:id="path17" d="M39.899,22.223c-0.05,-0.449 -0.575,-0.787 -1.028,-0.787c-1.466,0 -2.767,-0.861 -3.313,-2.193c-0.558,-1.364 -0.198,-2.954 0.895,-3.956c0.344,-0.315 0.385,-0.841 0.097,-1.207c-0.751,-0.953 -1.604,-1.814 -2.535,-2.56c-0.365,-0.292 -0.9,-0.252 -1.216,0.098c-0.954,1.057 -2.667,1.449 -3.99,0.897c-1.378,-0.58 -2.247,-1.976 -2.162,-3.474c0.028,-0.471 -0.316,-0.88 -0.785,-0.934c-1.195,-0.139 -2.401,-0.143 -3.599,-0.01c-0.464,0.051 -0.808,0.451 -0.793,0.915c0.053,1.484 -0.827,2.856 -2.19,3.414c-1.308,0.535 -3.009,0.145 -3.961,-0.902c-0.315,-0.344 -0.841,-0.387 -1.208,-0.101c-0.959,0.752 -1.831,1.614 -2.588,2.559c-0.295,0.367 -0.252,0.9 0.095,1.216c1.114,1.009 1.474,2.613 0.895,3.992c-0.552,1.315 -1.918,2.163 -3.481,2.163c-0.508,-0.016 -0.869,0.324 -0.925,0.785c-0.14,1.203 -0.142,2.427 -0.006,3.639c0.05,0.452 0.59,0.787 1.049,0.787c1.393,-0.036 2.731,0.827 3.292,2.193c0.559,1.363 0.2,2.953 -0.895,3.956c-0.342,0.314 -0.386,0.84 -0.097,1.206c0.743,0.947 1.596,1.808 2.531,2.56c0.367,0.296 0.9,0.254 1.218,-0.096c0.957,-1.059 2.67,-1.451 3.989,-0.897c1.381,0.577 2.249,1.973 2.164,3.472c-0.027,0.471 0.318,0.881 0.786,0.935c0.611,0.071 1.226,0.107 1.843,0.107c0.585,0 1.171,-0.032 1.756,-0.097c0.464,-0.051 0.808,-0.451 0.792,-0.917c-0.053,-1.482 0.827,-2.854 2.189,-3.412c1.317,-0.537 3.011,-0.144 3.963,0.902c0.316,0.344 0.839,0.386 1.207,0.101c0.958,-0.751 1.828,-1.611 2.589,-2.559c0.295,-0.367 0.253,-0.9 -0.096,-1.216c-1.113,-1.009 -1.475,-2.613 -0.896,-3.992c0.544,-1.297 1.859,-2.169 3.273,-2.169l0.198,0.005c0.459,0.038 0.881,-0.316 0.936,-0.784c0.141,-1.203 0.143,-2.427 0.007,-3.639Zm-15.874,7.148c-2.943,0 -5.337,-2.394 -5.337,-5.337c0,-2.943 2.394,-5.337 5.337,-5.337c2.943,0 5.337,2.394 5.337,5.337c0,2.943 -2.394,5.337 -5.337,5.337Z" style="fill:url(#_Linear3);"/></g><defs><linearGradient id="_Linear1" x1="0" y1="0" x2="1" y2="0" gradientUnits="userSpaceOnUse" gradientTransform="matrix(2.81669e-15,-46,46,2.81669e-15,23.9999,47.0001)"><stop offset="0" style="stop-color:#3a505a;stop-opacity:1"/><stop offset="1" style="stop-color:#95aab2;stop-opacity:1"/></linearGradient><linearGradient id="_Linear2" x1="0" y1="0" x2="1" y2="0" gradientUnits="userSpaceOnUse" gradientTransform="matrix(0.210143,-35.815,35.815,0.210143,23.8156,41.9075)"><stop offset="0" style="stop-color:#2d4651;stop-opacity:1"/><stop offset="1" style="stop-color:#93a8b0;stop-opacity:1"/></linearGradient><linearGradient id="_Linear3" x1="0" y1="0" x2="1" y2="0" gradientUnits="userSpaceOnUse" gradientTransform="matrix(0.338855,-32.3042,32.3042,0.338855,24.3005,40.13)"><stop offset="0" style="stop-color:#b7b7b7;stop-opacity:1"/><stop offset="1" style="stop-color:#d9d9d9;stop-opacity:1"/></linearGradient></defs></svg>

<?xml version="1.0" encoding="UTF-8" standalone="no"?>
<!DOCTYPE svg PUBLIC "-//W3C//DTD SVG 1.1//EN" "http://www.w3.org/Graphics/SVG/1.1/DTD/svg11.dtd">
<svg width="100%" height="100%" viewBox="0 0 48 48" version="1.1" xmlns="http://www.w3.org/2000/svg" xmlns:xlink="http://www.w3.org/1999/xlink" xml:space="preserve" xmlns:serif="http://www.serif.com/" style="fill-rule:evenodd;clip-rule:evenodd;stroke-linejoin:round;stroke-miterlimit:1.41421;">
    <g transform="matrix(1,0,0,1,-486.76,-502.726)">
        <g transform="matrix(1,0,0,1,486.76,502.726)">
            <circle cx="24" cy="24" r="23" style="fill:url(#_Linear1);"/>
        </g>
        <g id="path17" transform="matrix(1,0,0,1,486.76,502.726)">
            <path d="M39.899,22.223C39.849,21.774 39.324,21.436 38.871,21.436C37.405,21.436 36.104,20.575 35.558,19.243C35,17.879 35.36,16.289 36.453,15.287C36.797,14.972 36.838,14.446 36.55,14.08C35.799,13.127 34.946,12.266 34.015,11.52C33.65,11.228 33.115,11.268 32.799,11.618C31.845,12.675 30.132,13.067 28.809,12.515C27.431,11.935 26.562,10.539 26.647,9.041C26.675,8.57 26.331,8.161 25.862,8.107C24.667,7.968 23.461,7.964 22.263,8.097C21.799,8.148 21.455,8.548 21.47,9.012C21.523,10.496 20.643,11.868 19.28,12.426C17.972,12.961 16.271,12.571 15.319,11.524C15.004,11.18 14.478,11.137 14.111,11.423C13.152,12.175 12.28,13.037 11.523,13.982C11.228,14.349 11.271,14.882 11.618,15.198C12.732,16.207 13.092,17.811 12.513,19.19C11.961,20.505 10.595,21.353 9.032,21.353C8.524,21.337 8.163,21.677 8.107,22.138C7.967,23.341 7.965,24.565 8.101,25.777C8.151,26.229 8.691,26.564 9.15,26.564C10.543,26.528 11.881,27.391 12.442,28.757C13.001,30.12 12.642,31.71 11.547,32.713C11.205,33.027 11.161,33.553 11.45,33.919C12.193,34.866 13.046,35.727 13.981,36.479C14.348,36.775 14.881,36.733 15.199,36.383C16.156,35.324 17.869,34.932 19.188,35.486C20.569,36.063 21.437,37.459 21.352,38.958C21.325,39.429 21.67,39.839 22.138,39.893C22.749,39.964 23.364,40 23.981,40C24.566,40 25.152,39.968 25.737,39.903C26.201,39.852 26.545,39.452 26.529,38.986C26.476,37.504 27.356,36.132 28.718,35.574C30.035,35.037 31.729,35.43 32.681,36.476C32.997,36.82 33.52,36.862 33.888,36.577C34.846,35.826 35.716,34.966 36.477,34.018C36.772,33.651 36.73,33.118 36.381,32.802C35.268,31.793 34.906,30.189 35.485,28.81C36.029,27.513 37.344,26.641 38.758,26.641L38.956,26.646C39.415,26.684 39.837,26.33 39.892,25.862C40.033,24.659 40.035,23.435 39.899,22.223ZM24.025,29.371C21.082,29.371 18.688,26.977 18.688,24.034C18.688,21.091 21.082,18.697 24.025,18.697C26.968,18.697 29.362,21.091 29.362,24.034C29.362,26.977 26.968,29.371 24.025,29.371Z" style="fill:white;fill-opacity:0.592157;"/>
        </g>
    </g>
    <defs>
        <linearGradient id="_Linear1" x1="0" y1="0" x2="1" y2="0" gradientUnits="userSpaceOnUse" gradientTransform="matrix(2.81669e-15,-46,46,2.81669e-15,23.9999,47.0001)"><stop offset="0" style="stop-color:rgb(58,80,90);stop-opacity:1"/><stop offset="1" style="stop-color:rgb(149,170,178);stop-opacity:1"/></linearGradient>
    </defs>
</svg>
